X:166
%%etbk:tnset id:55,pos:2,rep:3x,ant:
%%etbk:tnset id:260,pos:6,rep:2x-Stop,ant:
%%etbk:pldat 2016-06-23T19:18,2016-06-20T18:01,2016-06-18T15:49,2016-05-05T14:30,2016-05-03T17:19,2016-03-11T17:09,2016-03-10T18:29,2016-03-09T16:09,2016-03-08T16:33,2016-03-07T18:42,2016-03-05T14:26,2016-02-26T17:28,2016-02-23T17:07,2016-02-08T18:17,2015-10-29T18:21,2015-10-27T15:29,2015-10-24T13:46,2015-10-20T16:57,2015-10-05T19:28,2015-06-26T17:21,2015-06-21T15:20,2015-05-28T18:12,2015-04-23T18:14,2015-03-13T19:03,2015-03-12T18:55,2015-03-10T17:02,2015-03-06T15:47,2015-02-16T19:19,2015-02-03T16:28,2015-01-27T16:39,2014-11-05T18:25,2014-11-02T14:42,2014-10-28T16:47,2014-10-13T18:30,2014-08-21T18:54,2014-08-20T18:52,2014-08-18T18:47,2014-06-25T15:40,2014-06-22T16:30,2014-06-10T18:12,2014-06-09T15:01,2014-03-05T18:14,2014-03-01T17:29,2014-02-27T18:42,2014-02-20T18:41,2013-10-30T16:42,2013-10-29T16:16,2013-10-27T14:21,2013-10-23T19:09,2013-10-18T15:50,2013-10-13T14:56,2013-10-09T15:23,2013-10-05T15:04
%%etkb:site1 http://www.thesession.org/tunes/display/44
T: High Reel, The
Z: Piano Box Version by Martin Fleischmann
H: Created 2013-02-19 /  Last Modified 2013-02-19
M: 4/4
L: 1/8
R: reel
K: Amix
|: "A"!5!a2 !3!fa !2!e!1!A !3!(3A!2!A!1!A | !3!c!1!A!5!eA !5!fA!5!eA | !5!a2 !3!fa !2!e!1!A !3!(3A!2!A!1!A | "G"!2!Bcdc !2!B!1!GG2|
"A"!5!a2 !3!fa !2!e!1!A !3!(3A!2!A!1!A | !3!c!1!def "G"!4!g2fg | !5!af!4!ge !3!f!1!d!2!e!1!d | !2!B!5!edc !2!B!1!GG2:|
|:"A" !3!c!1!A!5!eA !5!fA!5!eA | !3!c!1!A!5!a!3!f !2!e!1!AA2 | !3!c!1!A!5!eA !5!fA!5!eA | "G"!2!Bcdc !2!B!1!GG2|
"A"!3!c!1!A!5!eA !5!fA!5!eA | !3!c!1!def "G"!4!g2fg | !5!af!4!ge !3!f!1!d!2!e!1!d | !2!B!5!edc !2!B!1!GG2:|


